src/assets/images/logout-icon-w.svg

<?xml version="1.0" encoding="UTF-8"?>
<svg width="24px" height="24px" viewBox="0 0 24 24" version="1.1" xmlns="http://www.w3.org/2000/svg" xmlns:xlink="http://www.w3.org/1999/xlink">
    <!-- Generator: Sketch 55.2 (78181) - https://sketchapp.com -->
    <title>logout</title>
    <desc>Created with Sketch.</desc>
    <g id="Symbols" stroke="none" stroke-width="1" fill="none" fill-rule="evenodd">
        <g id="Icons/24px/LogoutW" fill="#FFFFFF">
            <g id="logout">
                <path d="M23.8770058,10.5970994 C23.8261053,10.4753216 23.7532632,10.364538 23.6604444,10.2717193 L20.6672749,7.27854971 C20.2770526,6.88930994 19.646269,6.88930994 19.2560468,7.27854971 C18.8658246,7.66877193 18.8658246,8.30053801 19.2560468,8.68977778 L20.5465263,9.98025731 L14.9713684,9.98025731 C14.419462,9.98025731 13.9733333,10.4273684 13.9733333,10.9782924 C13.9733333,11.5292164 14.419462,11.9763275 14.9713684,11.9763275 L20.5464795,11.9763275 L19.256,13.266807 C18.8657778,13.6570292 18.8657778,14.2887953 19.256,14.6780351 C19.4506199,14.8736374 19.7061053,14.9704795 19.9616374,14.9704795 C20.2171696,14.9704795 20.472655,14.8736842 20.6672749,14.6780351 L23.6604444,11.6848655 C23.7532632,11.5930292 23.8261053,11.4822456 23.8770058,11.3594854 C23.9777778,11.1160702 23.9777778,10.8406082 23.8770058,10.5970994 Z" id="Path"></path>
                <path d="M16.9674854,13.9727251 C16.4155789,13.9727251 15.9694503,14.4198363 15.9694503,14.9707602 L15.9694503,19.9610292 L11.9772632,19.9610292 L11.9772632,3.99218713 C11.9772632,3.55204678 11.6878129,3.16280702 11.2656374,3.03607018 L7.79939181,1.99611696 L15.9694503,1.99611696 L15.9694503,6.98638596 C15.9694503,7.53730994 16.4155789,7.98442105 16.9674854,7.98442105 C17.5193918,7.98442105 17.9655205,7.53730994 17.9655205,6.98638596 L17.9655205,0.998081871 C17.9655205,0.447111111 17.5193918,0 16.9674854,0 L0.998690058,0 C0.962760234,0 0.930807018,0.0149707602 0.895906433,0.0189473684 C0.848982456,0.0239532164 0.806081871,0.0319064327 0.761169591,0.0429005848 C0.656374269,0.0698479532 0.56154386,0.110783626 0.472748538,0.166643275 C0.450807018,0.180631579 0.423859649,0.181614035 0.402900585,0.197567251 C0.394853801,0.203602339 0.391859649,0.214596491 0.383859649,0.220584795 C0.275087719,0.306385965 0.184280702,0.411181287 0.118409357,0.535953216 C0.104421053,0.562900585 0.101426901,0.591859649 0.0904795322,0.619789474 C0.0585263158,0.695625731 0.023625731,0.769497076 0.0116491228,0.853333333 C0.00664327485,0.883274854 0.015625731,0.911204678 0.0146432749,0.940163743 C0.0136608187,0.960140351 0.00065497076,0.978105263 0.00065497076,0.998035088 L0.00065497076,20.9590643 C0.00065497076,21.4351345 0.336982456,21.8443509 0.803087719,21.9371696 L10.7835789,23.9332865 C10.8484678,23.9472749 10.9143392,23.9532632 10.9791813,23.9532632 C11.2077193,23.9532632 11.4322807,23.8744327 11.6119298,23.7266901 C11.8424795,23.537076 11.9772164,23.2545965 11.9772164,22.9551813 L11.9772164,21.9571462 L16.9674854,21.9571462 C17.5193918,21.9571462 17.9655205,21.5100351 17.9655205,20.9591111 L17.9655205,14.9707602 C17.9655205,14.4198363 17.5193918,13.9727251 16.9674854,13.9727251 Z" id="Path"></path>
            </g>
        </g>
    </g>
</svg>

<?xml version="1.0" encoding="UTF-8"?>
<svg version="1.1" viewBox="0 0 24 24" xmlns="http://www.w3.org/2000/svg">
<title>logout</title>
<desc>Created with Sketch.</desc>
<g fill="none" fill-rule="evenodd">
<g fill="#fff">
<path d="m23.877 10.597c-0.0509-0.12178-0.12374-0.23256-0.21656-0.32538l-2.9932-2.9932c-0.39022-0.38924-1.021-0.38924-1.4112 0-0.39022 0.39022-0.39022 1.022 0 1.4112l1.2905 1.2905h-5.5752c-0.55191 0-0.99804 0.44711-0.99804 0.99804s0.44613 0.99804 0.99804 0.99804h5.5751l-1.2905 1.2905c-0.39022 0.39022-0.39022 1.022 0 1.4112 0.19462 0.1956 0.45011 0.29244 0.70564 0.29244 0.25553 0 0.51102-0.096795 0.70564-0.29244l2.9932-2.9932c0.092819-0.091836 0.16566-0.20262 0.21656-0.32538 0.10077-0.24342 0.10077-0.51888 0-0.76239z"/>
<path d="m16.967 13.973c-0.55191 0-0.99804 0.44711-0.99804 0.99804v4.9903h-3.9922v-15.969c0-0.44014-0.28945-0.82938-0.71163-0.95612l-3.4662-1.04h8.1701v4.9903c0 0.55092 0.44613 0.99804 0.99804 0.99804 0.55191 0 0.99804-0.44711 0.99804-0.99804v-5.9883c0-0.55097-0.44613-0.99808-0.99804-0.99808h-15.969c-0.03593 0-0.067883 0.014971-0.10278 0.018947-0.046924 0.0050058-0.089825 0.012959-0.13474 0.023953-0.1048 0.026947-0.19963 0.067883-0.28842 0.12374-0.021942 0.013988-0.048889 0.014971-0.069848 0.030924-0.0080468 0.0060351-0.011041 0.017029-0.019041 0.023018-0.10877 0.085801-0.19958 0.1906-0.26545 0.31537-0.013988 0.026947-0.016982 0.055906-0.02793 0.083836-0.031953 0.075836-0.066854 0.14971-0.07883 0.23354-0.0050058 0.029942 0.0039766 0.057871 0.0029942 0.08683-9.8246e-4 0.019977-0.013988 0.037942-0.013988 0.057871v19.961c0 0.47607 0.33633 0.88529 0.80243 0.97811l9.9805 1.9961c0.064889 0.013988 0.13076 0.019977 0.1956 0.019977 0.22854 0 0.4531-0.07883 0.63275-0.22657 0.23055-0.18961 0.36529-0.47209 0.36529-0.77151v-0.99804h4.9903c0.55191 0 0.99804-0.44711 0.99804-0.99804v-5.9884c0-0.55092-0.44613-0.99804-0.99804-0.99804z"/>
</g>
</g>
</svg>
